HTML/img/Rhythms/Rhythm_SixtenthUnbeamed.svg

<svg width="612" height="792" viewBox="0 0 40 40" xmlns="http://www.w3.org/2000/svg"><path class="Stem" fill="none" stroke="#000" stroke-width=".65" stroke-linecap="round" stroke-linejoin="bevel" d="M20.951 13.006v16.561M13.117 13.006v16.561"/><path class="Note" d="M25.021 9.313c.625 0 1.151.162 1.582.488.402.351.604.794.604 1.328 0 .898-.461 1.738-1.387 2.52-.936.781-1.94 1.171-3.006 1.171-.625 0-1.154-.162-1.582-.488a1.686 1.686 0 01-.607-1.328c0-.898.47-1.738 1.406-2.52.913-.781 1.909-1.171 2.99-1.171M17.188 9.313c.625 0 1.152.162 1.582.488.403.351.605.794.605 1.328 0 .898-.462 1.738-1.387 2.52-.937.781-1.94 1.171-3.008 1.171-.625 0-1.152-.162-1.582-.488a1.687 1.687 0 01-.605-1.328c0-.898.469-1.738 1.406-2.52.912-.781 1.908-1.171 2.989-1.171"/><path class="Hook" d="M21.25 26.683c.522-.3 1.017-.606 1.486-.918.493-.352.936-.703 1.328-1.055.467-.43.825-.872 1.074-1.328.259-.495.391-.983.391-1.465 0-.456-.093-.918-.275-1.387-.142.183-.565.599-1.268 1.25a27.9 27.9 0 00-1.369 1.348c-.337.365-.651.82-.936 1.367a3.678 3.678 0 00-.431 1.699v.489m5.371-9.258c0 .781-.246 1.556-.742 2.324.327.69.488 1.413.488 2.168 0 .638-.174 1.283-.526 1.934-.379.703-.802 1.276-1.271 1.718l-1.523 1.485a7.86 7.86 0 00-1.268 1.699c-.352.625-.529 1.269-.529 1.934h-.625v-10h.625v1.503c3.022-1.575 4.531-3.164 4.531-4.765 0-.352-.091-.762-.272-1.231v-.078c0-.104.038-.208.116-.312a.49.49 0 01.353-.157c.13 0 .246.079.35.235.117.208.184.41.197.605.013.091.026.209.039.352l.039.215c.013.091.018.215.018.371M13.418 25.563c.521-.3 1.016-.606 1.484-.918.495-.352.938-.703 1.328-1.055.469-.43.827-.872 1.075-1.328.26-.495.39-.983.39-1.465 0-.456-.091-.918-.273-1.387-.143.183-.567.599-1.27 1.25-.534.495-.989.944-1.367 1.348-.338.365-.651.82-.937 1.367a3.689 3.689 0 00-.43 1.699v.489m5.371-9.258c0 .781-.247 1.556-.742 2.324a5.03 5.03 0 01.488 2.168c0 .638-.176 1.283-.527 1.934-.378.703-.801 1.276-1.27 1.718l-1.523 1.485a7.935 7.935 0 00-1.27 1.699 3.9 3.9 0 00-.527 1.934h-.625v-10h.625v1.503c3.021-1.575 4.531-3.164 4.531-4.765 0-.352-.091-.762-.273-1.231v-.078c0-.104.039-.208.117-.312a.487.487 0 01.352-.157c.13 0 .247.079.351.235.117.208.182.41.195.605.013.091.026.209.039.352l.04.215c.013.091.019.215.019.371"/></svg>

<?xml version="1.0" encoding="utf-8"?>
<svg width="612px" height="792px" viewBox="0 0 40 40" xmlns="http://www.w3.org/2000/svg">
  <title>Rhythm Reference</title>
  <desc>Generated by MuseScore 2.0.3</desc>
  <polyline class="Stem" fill="none" stroke="#000000" stroke-width="0.65" stroke-linecap="round" stroke-linejoin="bevel" points="20.951 13.006 20.951 29.567"/>
  <polyline class="Stem" fill="none" stroke="#000000" stroke-width="0.65" stroke-linecap="round" stroke-linejoin="bevel" points="13.117 13.006 13.117 29.567"/>
  <path class="Note" d="M 25.021 9.313 C 25.646 9.313 26.172 9.475 26.603 9.801 C 27.005 10.152 27.207 10.595 27.207 11.129 C 27.207 12.027 26.746 12.867 25.82 13.649 C 24.884 14.43 23.88 14.82 22.814 14.82 C 22.189 14.82 21.66 14.658 21.232 14.332 C 20.828 13.981 20.625 13.538 20.625 13.004 C 20.625 12.106 21.095 11.266 22.031 10.484 C 22.944 9.703 23.94 9.313 25.021 9.313"/>
  <path class="Note" d="M 17.188 9.313 C 17.813 9.313 18.34 9.475 18.77 9.801 C 19.173 10.152 19.375 10.595 19.375 11.129 C 19.375 12.027 18.913 12.867 17.988 13.649 C 17.051 14.43 16.048 14.82 14.98 14.82 C 14.355 14.82 13.828 14.658 13.398 14.332 C 12.995 13.981 12.793 13.538 12.793 13.004 C 12.793 12.106 13.262 11.266 14.199 10.484 C 15.111 9.703 16.107 9.313 17.188 9.313"/>
  <path class="Hook" d="M 21.25 26.683 C 21.772 26.383 22.267 26.077 22.736 25.765 C 23.229 25.413 23.672 25.062 24.064 24.71 C 24.531 24.28 24.889 23.838 25.138 23.382 C 25.397 22.887 25.529 22.399 25.529 21.917 C 25.529 21.461 25.436 20.999 25.254 20.53 C 25.112 20.713 24.689 21.129 23.986 21.78 C 23.452 22.275 22.996 22.724 22.617 23.128 C 22.28 23.493 21.966 23.948 21.681 24.495 C 21.393 25.055 21.25 25.621 21.25 26.194 L 21.25 26.683 M 26.621 17.425 C 26.621 18.206 26.375 18.981 25.879 19.749 C 26.206 20.439 26.367 21.162 26.367 21.917 C 26.367 22.555 26.193 23.2 25.841 23.851 C 25.462 24.554 25.039 25.127 24.57 25.569 L 23.047 27.054 C 22.539 27.575 22.116 28.141 21.779 28.753 C 21.427 29.378 21.25 30.022 21.25 30.687 L 20.625 30.687 L 20.625 20.687 L 21.25 20.687 L 21.25 22.19 C 24.272 20.615 25.781 19.026 25.781 17.425 C 25.781 17.073 25.69 16.663 25.509 16.194 C 25.509 16.194 25.509 16.168 25.509 16.116 C 25.509 16.012 25.547 15.908 25.625 15.804 C 25.729 15.7 25.848 15.647 25.978 15.647 C 26.108 15.647 26.224 15.726 26.328 15.882 C 26.445 16.09 26.512 16.292 26.525 16.487 C 26.538 16.578 26.551 16.696 26.564 16.839 L 26.603 17.054 C 26.616 17.145 26.621 17.269 26.621 17.425"/>
  <path class="Hook" d="M 13.418 25.563 C 13.939 25.263 14.434 24.957 14.902 24.645 C 15.397 24.293 15.84 23.942 16.23 23.59 C 16.699 23.16 17.057 22.718 17.305 22.262 C 17.565 21.767 17.695 21.279 17.695 20.797 C 17.695 20.341 17.604 19.879 17.422 19.41 C 17.279 19.593 16.855 20.009 16.152 20.66 C 15.618 21.155 15.163 21.604 14.785 22.008 C 14.447 22.373 14.134 22.828 13.848 23.375 C 13.561 23.935 13.418 24.501 13.418 25.074 L 13.418 25.563 M 18.789 16.305 C 18.789 17.086 18.542 17.861 18.047 18.629 C 18.372 19.319 18.535 20.042 18.535 20.797 C 18.535 21.435 18.359 22.08 18.008 22.731 C 17.63 23.434 17.207 24.007 16.738 24.449 L 15.215 25.934 C 14.707 26.455 14.284 27.021 13.945 27.633 C 13.594 28.258 13.418 28.902 13.418 29.567 L 12.793 29.567 L 12.793 19.567 L 13.418 19.567 L 13.418 21.07 C 16.439 19.495 17.949 17.906 17.949 16.305 C 17.949 15.953 17.858 15.543 17.676 15.074 C 17.676 15.074 17.676 15.048 17.676 14.996 C 17.676 14.892 17.715 14.788 17.793 14.684 C 17.897 14.58 18.014 14.527 18.145 14.527 C 18.275 14.527 18.392 14.606 18.496 14.762 C 18.613 14.97 18.678 15.172 18.691 15.367 C 18.704 15.458 18.717 15.576 18.73 15.719 L 18.77 15.934 C 18.783 16.025 18.789 16.149 18.789 16.305"/>
</svg>
